X:1
T:Pachelbel's Frolics x2
L:1/8
Q:1/4=180
M:4/4
K:D
"D""^Pachelbel's Frolics x2" d2 dc defg |"A" a2 ab afed |"Bm" B2 Bc dcdB |"F#m" ABAG FDEF |
"G" GFGA B2 Bc |"D" dcde ffef |"G" gfed cdef |1"A7" gece"A" a4 :|
2"A" gece"D" d2 de |:"D" fada fadf |"A" egcg egce |"Bm" dfBf dfBf |
"F#m" A2 AB =cAFA |"G" GFGA BAB^c |"D" dcde f2 ef |"G" gfed cdef |
1"A7" gece"A" a4 :|2"A" gece"D" d2 de ||"A""^Last Time" ge.c.e"^G.P." z4 |"D" !fermata!d8 |]

